!!!OTL: Lumbering Boy
!!!ONM: 130.
**kern
*clefG2
*k[f#c#]
*b:
*M6/8
*MM52
{4a
=1
8a
4f#
4g
8f#
=2
8f#
[4b
8b]
8r}
{8b
=3
8a
8a
8f#
4d
8f#
=4
4.e
4r}
{8a
=5
4a
8a
4b
8a
=6
8a
[4f#
8f#]
8r}
{8d
=7
4g
8d
8g
8g
8g
=8
4.f#
4r
8r}
=9
{4a
8a
4b
8a
=10
8a
[4f#
8f#]
8r}
{16d
16d
=11
4g
8g
4d
8e
=12
4.f#
4r}
{8a
=13
4a
16a
16a
4b
16a
16a
=14
(8a
[4f#
8f#])
8r}
{8d
=15
4d
8d
4g
8g
=16
4.f#
4r}
==
*-
!!!CNT: Folksongs of Maritime Canada
!!!MRD: 1928///-1932///
!!!OCL: Helen Creighton
!!!YOR: Songs and Ballads from Nova Scotia
!!!PPR: J.M. Dent & Sons, Limited
!!!PPP: Toronto, Canada
!!!PDT: 1932///
!!!reprint: Dover Publications, 1992: ISBN 0-486-21703-5
!!!ENC1: Craig Stuart Sapp (music and bibliographic data)                       
!!!ENC2: Marcus Pearce (phrase markings and key designations)                   
!!!ENC3: Darrell Conklin (phrase markings and key designations)   
!!!END: 2002/04/10/
!!!EEV: 2004/06/05
!!!MPN: Mr. Charlie Hartlan
!!!PPG: 280
!!!EFL: 132/152
!!!ARE: Canada; Nova Scotia
!!!verses: 6
!!!VTS: 231689800
